actions/16/mail-queue.svg

<svg xmlns="http://www.w3.org/2000/svg" viewBox="0 0 16 16">
  <defs id="defs3051">
    <style type="text/css" id="current-color-scheme">
      .ColorScheme-Text {
        color:#eff0f1;
      }
      </style>
  </defs>
 <path style="fill:currentColor;fill-opacity:1;stroke:none" 
     d="M 1 2 L 1 14 L 9 14 L 9 13 L 2.65625 13 L 6.6425781 8.3496094 L 8 9.7070312 C 7.986852 9.6833613 14 3.7070312 14 3.7070312 L 14 8 L 15 8 L 15 2 L 1 2 z M 2.7070312 3 L 13.292969 3 L 8 8.2929688 L 2.7070312 3 z M 2 3.7070312 L 5.9335938 7.640625 L 2 12.230469 L 2 3.7070312 z M 12 8 C 10.338 8 9 9.338 9 11 C 9 12.662 10.338 14 12 14 C 13.662 14 15 12.662 15 11 C 15 9.338 13.662 8 12 8 z M 12 9 C 13.108 9 14 9.892 14 11 C 14 12.108 13.108 13 12 13 C 10.892 13 10 12.108 10 11 C 10 9.892 10.892 9 12 9 z M 11 10 L 11 11 L 11 12 L 13 12 L 13 11 L 12 11 L 12 10 L 11 10 z "
     class="ColorScheme-Text"
     />
</svg>

<svg xmlns="http://www.w3.org/2000/svg" viewBox="0 0 16 16">
  <defs id="defs3051">
    <style type="text/css" id="current-color-scheme">.ColorScheme-Text {color:#fcfcfc;}</style>
  </defs>
 <path style="fill:currentColor;fill-opacity:1;stroke:none" 
     d="m 3,2 c 0,0 -2,0 -2,2 0,2 0,6 0,8 0,2 2,2 2,2 H 9 V 13 H 2.65625 L 6.6425781,8.3496094 8,9.7070312 c -0.013148,-0.02367 6,-6 6,-6 V 8 h 1 C 15,8 15,6 15,4 15,2 13,2 13,2 Z M 2.7070312,3 H 13.292969 L 8,8.2929688 Z M 2,3.7070312 5.9335938,7.640625 2,12.230469 Z M 12,8 c -1.662,0 -3,1.338 -3,3 0,1.662 1.338,3 3,3 1.662,0 3,-1.338 3,-3 0,-1.662 -1.338,-3 -3,-3 z m 0,1 c 1.108,0 2,0.892 2,2 0,1.108 -0.892,2 -2,2 -1.108,0 -2,-0.892 -2,-2 0,-1.108 0.892,-2 2,-2 z m -1,1 v 1 1 h 2 v -1 h -1 v -1 z"
     class="ColorScheme-Text"
     />
</svg>
